X: 799
T: Al-Alándalus, The
R: reel
M: 4/4
K: Bminor
|:bfff gfed|efff gfeg|fbc'd'2c'c'b|b^aag gfef|
bfff gfed|efff gfeg|f^e=ec2^Acg|1 edc^A B2fa:|2 edc^A B2 F^A||
|:BFFF BFcF|FFcF dFFF|B^Acf2efg|f^eed dcc^A|
BFFF BFcF|FFcF dFFF|B^Acf2efg|1 edc^A B2 F^A:|2 edc^A B4||

